X:0858
T:A Cock Laird fu' Cadgie.
M:6/8
L:1/8
Q:3/8=80
I: ||
Z:Jack Campin * www.campin.me.uk * 2009
K:E Minor
e|dBe  dBc |d>ed/c/ B2 \
e|dBe  dBc |d>ed/c/ B2
F|G>AB A>GF|G<E^d   e2 \
F|G>AB A>GF|G<B^D   E2|]

